X:1
T:Wilson, 87.87
T:Wilson, 87.87
T:From Elijah, by Felix Mendelssohn, 1846
T:Public Domain Courtesy of the Cyber Hymnal™
C:From Elijah, by Felix Mendelssohn, 1846
Z:Public Domain
Z:Courtesy of the Cyber Hymnal™
%%score ( 1 2 ) ( 3 4 )
L:1/8
M:3/4
K:C
V:1 treble 
V:2 treble 
V:3 bass 
V:4 bass 
V:1
 [EG]4 [Ee]2 | [Fd]4 [Fc]2 | (B3 d) (cA) | [EG]2 [CE]4 | G4 [FA]2 | ([Ec]2 [DB]2) [DB]2 | %6
 (d2 c2) [=FA]2 | G6 | [EG]4 [Ee]2 | [Fd]4 [Fc]2 | (B3 d) (cA) | [EG]2 [CE]4 | G4 [Gc]2 | %13
 d2 c2 [FA]2 | ([DG]2 [EA][FB]) !fermata![Fd]2 | [Ec]6 |] %16
V:2
 x6 | x6 | F4 F2 | x6 | G4 x2 | x6 | ^F4 x2 | G6 | x6 | x6 | F4 F2 | x6 | G4 x2 | F4 x2 | x6 | %15
 x6 |] %16
V:3
 [C,C]4 [C,G,]2 | [C,A,]4 [C,A,]2 | (D3 B,) (A,C) | [C,C]2 [C,G,]4 | [E,C]4 [F,C]2 | G,4 G,2 | %6
 [D,A,]4 [D,C]2 | [G,,B,]6 | [C,C]4 [C,G,]2 | [C,A,]4 [C,A,]2 | (D3 B,) (A,C) | [C,C]2 [C,G,]4 | %12
 [E,C]4 [E,_B,]2 | [F,A,]4 [F,C]2 | (B,2 CD) !fermata![G,,B,]2 | [C,G,]6 |] %16
V:4
 x6 | x6 | C,4 C,2 | x6 | x6 | G,4 G,2 | x6 | x6 | x6 | x6 | C,4 C,2 | x6 | x6 | x6 | G,4 x2 | %15
 x6 |] %16

